modules/hawcons-stroke/icons/icon-28-golf.svg

<?xml version="1.0" encoding="UTF-8" standalone="no"?>
<svg width="32px" height="32px" viewBox="0 0 32 32" version="1.1" xmlns="http://www.w3.org/2000/svg" xmlns:xlink="http://www.w3.org/1999/xlink" xmlns:sketch="http://www.bohemiancoding.com/sketch/ns">
    <!-- Generator: Sketch 3.0.3 (7891) - http://www.bohemiancoding.com/sketch -->
    <title>icon 28 golf</title>
    <desc>Created with Sketch.</desc>
    <defs></defs>
    <g id="Page-1" stroke="none" stroke-width="1" fill="none" fill-rule="evenodd" sketch:type="MSPage">
        <g id="icon-28-golf" sketch:type="MSArtboardGroup" fill="#929292">
            <path d="M12,8.5 L12,21.357564 C7.88508479,22.042891 5,23.6396057 5,25.5 C5,27.9852814 10.1487254,30 16.5,30 C22.8512746,30 28,27.9852814 28,25.5 C28,23.0147186 22.8512746,21 16.5,21 C15.2796011,21 14.1036023,21.0743869 13,21.2122056 L13,21.2122056 L13,13.5714286 L26,8 L12,2 L12,8.5 L12,8.5 L12,8.5 Z M13,22.1991567 C14.0947262,22.0701799 15.272776,22 16.5,22 C22.2989899,22 27,23.5670034 27,25.5 C27,27.4329966 22.2989899,29 16.5,29 C10.7010101,29 6,27.4329966 6,25.5 C6,24.103802 8.452579,22.8985475 12,22.3368156 L12,24.0300054 C10.8588798,24.1689865 10,24.7743126 10,25.5 C10,26.3284271 11.1192881,27 12.5,27 C13.8807119,27 15,26.3284271 15,25.5 C15,24.7743126 14.1411202,24.1689865 13,24.0300054 L13,22.1991567 L13,22.1991567 L13,22.1991567 Z M13,3.5 L13,12.5 L23.5,8 L13,3.5 L13,3.5 Z M20.5,26 C21.3284271,26 22,25.5522847 22,25 C22,24.4477153 21.3284271,24 20.5,24 C19.6715729,24 19,24.4477153 19,25 C19,25.5522847 19.6715729,26 20.5,26 L20.5,26 Z" id="golf" sketch:type="MSShapeGroup"></path>
        </g>
    </g>
</svg>

<svg width="32" height="32" xmlns="http://www.w3.org/2000/svg"><path d="M12 8.5v12.858c-4.115.685-7 2.282-7 4.142 0 2.485 5.149 4.5 11.5 4.5S28 27.985 28 25.5 22.851 21 16.5 21c-1.22 0-2.396.074-3.5.212v-7.64L26 8 12 2v6.5zm1 13.7a30.06 30.06 0 0 1 3.5-.2c5.799 0 10.5 1.567 10.5 3.5S22.299 29 16.5 29 6 27.433 6 25.5c0-1.396 2.453-2.601 6-3.163v1.693c-1.141.139-2 .744-2 1.47 0 .828 1.12 1.5 2.5 1.5s2.5-.672 2.5-1.5c0-.726-.859-1.331-2-1.47V22.2zm0-18.7v9L23.5 8 13 3.5zM20.5 26c.828 0 1.5-.448 1.5-1s-.672-1-1.5-1-1.5.448-1.5 1 .672 1 1.5 1z" fill="#929292" fill-rule="evenodd"/></svg>
